X:1
T:Title
%%score { 1 | 2 }
L:1/8
M:3/4
K:G
V:1 treble nm="Grand Piano"
V:2 bass 
V:1
 z2 z2[Q:1/4=76] B>G | c3 B AG | E2 [B,D]2 [DG]>[DA] | B3 d cB |[M:2/4] [FA]4 |[M:1/4] B>G | %6
[M:3/4] c3 B AG | E2 [B,D]2 [DG]>[DG] | [EA]3 [Ec] [DB][CDA] |[M:2/4] [B,DG]4 |[M:1/4] B>c | %11
[M:3/4] d3 B ed | [Ac]2 [FA]2 [FA]>[GB] | [Ac]3 [FA] [Bd][Ac] |[M:2/4] [GB]4 |[M:1/4] [DG]>A | %16
[M:3/4] B3 G [Ec][DB] | [EA]2 [G,EG]2 [G,DF]>[G,CE] | [G,B,D]3 [B,DG] [CDA]>[B,DG] | %19
[M:2/4] [B,DG]4 |] %20
V:2
 z2 z2 [G,D]>[G,B,] | [G,E]3 [G,D] [D,F,C][E,G,B,] | [C,G,C]2 [G,,G,]2 [B,,G,]>[C,F,] | %3
 [G,D]3 [B,DG] [A,DF][G,DG] |[M:2/4] [D,D]4 |[M:1/4] [G,DG]>[K:bass][G,B,D] | %6
[M:3/4] [G,E]3 [G,D] [D,F,C][E,G,B,] | [C,G,C]2 [G,,G,]2 [B,,G,]>[B,,G,] | %8
 [C,G,]3 [C,G,] [D,G,]D, |[M:2/4] G,,4 |[M:1/4][K:treble] [G,D]>[G,A,D] | %11
[M:3/4] [G,B,G]3 [G,DG] [G,CG][G,B,G] | [D,D]2 [D,D]2 [D,D]>[D,D] | [D,D]3 [D,D] [D,D][D,D] | %14
[M:2/4] [G,D]4 |[M:1/4] [B,,G,]>[D,F,D] |[M:3/4] [G,D]3 [G,B,] [G,,G,][G,,G,] | [C,G,]2 C,2 C,>C, | %18
 D,3 D, D,>G,, |[M:2/4] G,,4 |] %20

